X:1232
T:Battering Ram
Z: id:dc-jig-153
M:6/8
L:1/8
K:G Major
B|dBG BAG|dBG G2B|dBG AGE|GED D2B|!
dBG BAG|BdB BAG|AGA BAB|GED D2:|!
B|deg aga|bge edB|deg aga|bge e2a|!
bag agf|ged ege|dBG AGE|GED D2:|!
d|B2G A2G|d2G G2d|BAG AGE|GED D2d|!
B2G A2G|BdG BAG|AGA BAB|GED D2:|!


